X: 1
T: Chusen Kale Mazel Tov    [Dm]
T: Chusen Kala Mazel Tov
T: Choson Kale Mazel Tov
O: Dave Tarras LP
S: Dave Tarras LP
S: http://mysite.freeserve.com/manchesterklezmer
M: 4/4
L: 1/8
K: Dm
"A"[|] A,2 D2F2 |\
"Dm"A4 A2z2 | ^G4 A2z2 | F3E D2z2 | z2A,2 D2F2 |\
"Dm"^G2A2 A2A2 | "Dm"^G4 A2z2 | "Dm"=B2c2 A2z2 | z2A2 "A7"=B2^c2 |
"Dm"d4 A4 | ^G4 A2z2 | F3E D2z2 | z2D2 E2F2 |\
"E7"^G2 G4 F2 | "A"AGF2 FED2 | "Dm"D6 z2 | z2 :|
"B"|: C2 F2A2 |\
"F"c2 c4 B2 | A3G G2F2 | GA F4 z2 | z2C2 F2A2 |\
"F"c3d _edc2 | B2A2 G2F2 | GAA2 z2 | "C7"z2C2 D2E2 |
"Fm"F3E F2G2 | _A3G A2c2 | "G7"=Bcd2 cB_A2 | "C"G4 "(E)"^G4 |\
"Dm"A2 A4 ^G2 | "A"AGF2 FED2 | "Dm"D6  | z2 :|
"C"|: z2 z4 |\
"Dm"D2^GA G4 | D2^GA G4 | D2^GA G4 | F2ED A2A2 |\
"Dm"D2^GA G4 | D2^GA G4 | "A7"F2ED A2A2 | "D"D6 z2 | z2 :|
